packages/foundations/assets/icons/functional/images/transportation/train_32_inverted.svg

<svg width="32" height="32" viewBox="0 0 32 32" fill="none" xmlns="http://www.w3.org/2000/svg">
<g clip-path="url(#clip0_2214_6780)">
<path fill-rule="evenodd" clip-rule="evenodd" d="M7.09972 22.8295C8.09079 23.9358 9.26622 24.9048 11.0851 26.0991L11.6563 26.4609C12.0351 26.6733 12.4335 26.804 12.9985 26.8834C14.03 26.9591 15.0299 26.9979 15.998 27C16.9661 27.0021 17.9346 26.9674 18.9035 26.8961C19.3873 26.8349 19.7511 26.7395 20.0787 26.5928L20.7802 26.1932C22.8178 24.8618 23.8369 24.0127 24.8934 22.835C24.5987 23.9556 24.4159 24.6331 24.3449 24.8675C24.1403 25.5433 23.6936 26.2429 23.1634 27.0473C22.6331 27.8516 21.8565 28.4449 20.9676 28.7554C20.9879 28.833 20.9984 28.9153 20.9984 29C20.9984 29.5128 20.6124 29.9355 20.115 29.9933L11.9984 30C11.4461 30 10.9984 29.5523 10.9984 29C10.9984 28.9098 11.0103 28.8223 11.0327 28.7392C10.2383 28.456 9.53329 27.9478 9.01258 27.2656C8.49187 26.5834 8.03031 25.7732 7.74845 25.1211C7.64545 24.8828 7.42921 24.1189 7.09972 22.8295ZM17.4847 2C20.57 2 22.3564 3.07441 23.7369 4.9C25.0169 6.59286 25.7648 8.61959 25.8915 10.7264L25.9074 11.099L25.9897 14.3654C26.0299 15.5276 25.9692 16.8328 25.8075 18.2809C25.5699 18.6537 25.1688 19.2239 24.6041 19.9917C23.2669 21.8097 22.2168 22.8876 19.7995 24.437C19.4056 24.6894 19.0049 24.9985 17.6935 24.9985C17.1719 24.9985 15.8051 24.9985 14.2733 24.9985C12.9985 24.9985 12.7294 24.7771 12.1975 24.4371C9.68283 22.8295 8.64809 21.7497 7.44939 20.0427C6.65026 18.9046 6.22948 18.3147 6.18707 18.2728C6.06027 16.9429 5.99735 15.8756 5.9983 15.0707C5.99943 14.2659 6.03017 12.942 6.09053 11.0991C6.14678 8.85926 6.90534 6.69245 8.26073 4.9C9.59187 3.13961 11.3761 2 14.5776 2.0041L17.4847 2ZM12.5925 18.0408C12.385 17.5852 11.8642 17.3475 11.3761 17.5048C10.888 17.6622 10.6042 18.1593 10.7018 18.6504L11.6719 21.659C11.8795 22.1146 12.4002 22.3523 12.8883 22.1949C13.3764 22.0376 13.6602 21.5405 13.5626 21.0494L12.5925 18.0408ZM19.2922 18.0671L18.36 20.9363C18.1905 21.462 18.4793 22.0255 19.0049 22.1949C19.493 22.3523 20.0137 22.1146 20.2213 21.659L21.1535 18.7897C21.323 18.2641 21.0342 17.7006 20.5086 17.5311C20.0205 17.3738 19.4998 17.6115 19.2922 18.0671ZM15.9985 5C14.2728 5 12.8488 5.2215 11.7263 5.66451C10.0103 6.34174 8.86199 8.11255 9.24573 10.1096C9.45705 11.2094 9.66613 11.9711 9.78641 12.3738C10.0889 13.3863 10.9156 14.1492 11.9374 14.3761L13.382 14.6024C14.9429 14.8396 16.5279 14.8633 18.0937 14.6735L19.8723 14.4113C20.9821 14.2426 21.8952 13.449 22.2168 12.3734C22.334 11.9815 22.4876 11.5987 22.7561 10.1038C23.0938 8.22357 22.0371 6.42834 20.4665 5.74757C19.0896 5.15076 17.5955 5 15.9985 5Z" fill="#1A1C1F"/>
</g>
<defs>
<clipPath id="clip0_2214_6780">
<rect width="32" height="32" fill="white"/>
</clipPath>
</defs>
</svg>

<svg xmlns="http://www.w3.org/2000/svg" width="32" height="32" fill="none"><g clip-path="url(#a)"><path fill="#1A1C1F" fill-rule="evenodd" d="M7.1 22.83c.99 1.106 2.166 2.075 3.985 3.27l.571.36c.38.213.777.344 1.342.423q1.548.114 3 .117a38 38 0 0 0 2.906-.104c.483-.061.847-.157 1.175-.303l.701-.4c2.038-1.331 3.057-2.18 4.113-3.358a89 89 0 0 1-.548 2.032c-.205.676-.651 1.376-1.182 2.18a4.34 4.34 0 0 1-2.195 1.708q.03.117.03.245a1 1 0 0 1-.883.993L11.998 30a1 1 0 0 1-.965-1.26 4.4 4.4 0 0 1-2.02-1.474 11 11 0 0 1-1.265-2.145q-.154-.357-.648-2.291M17.485 2c3.085 0 4.871 1.074 6.252 2.9a10.73 10.73 0 0 1 2.155 5.826l.015.373.083 3.266q.06 1.744-.182 3.916-.358.56-1.204 1.71c-1.337 1.819-2.387 2.897-4.805 4.446-.393.252-.794.561-2.105.561h-3.42c-1.275 0-1.545-.22-2.076-.56-2.515-1.608-3.55-2.688-4.749-4.395q-1.199-1.707-1.262-1.77-.19-1.995-.189-3.202t.093-3.972c.056-2.24.814-4.407 2.17-6.199 1.33-1.76 3.115-2.9 6.317-2.896zm-4.892 16.04a1 1 0 0 0-1.891.61l.97 3.009a1 1 0 0 0 1.89-.61zm6.7.027-.933 2.87a1 1 0 0 0 1.861.722l.933-2.87a1 1 0 0 0-1.862-.722M15.998 5q-2.589 0-4.273.665c-1.716.677-2.864 2.448-2.48 4.445.211 1.1.42 1.861.54 2.264a2.9 2.9 0 0 0 2.151 2.002l1.445.226c1.56.238 3.146.261 4.712.072l1.778-.263a2.9 2.9 0 0 0 2.345-2.038c.117-.391.27-.774.54-2.27.337-1.88-.72-3.675-2.29-4.355C19.09 5.15 17.596 5 15.999 5" clip-rule="evenodd"/></g><defs><clipPath id="a"><path fill="#fff" d="M0 0h32v32H0z"/></clipPath></defs></svg>
